; G-Code generated by Simplify3D(R) Version 4.1.2
; Jun 10, 2022 at 2:44:46 PM
; Settings Summary
;   processName,Process1
;   applyToModels,Left Stealth Remote Holder - Front Plate
;   profileName,LulzBot TAZ 5 (modified)
;   profileVersion,2021-08-27 09:31:58
;   baseProfile,
;   printMaterial,PETG
;   printQuality,Medium
;   printExtruders,
;   extruderName,Primary Extruder
;   extruderToolheadNumber,0
;   extruderDiameter,0.35
;   extruderAutoWidth,0
;   extruderWidth,0.4
;   extrusionMultiplier,1.01
;   extruderUseRetract,1
;   extruderRetractionDistance,0.9
;   extruderExtraRestartDistance,0
;   extruderRetractionZLift,0
;   extruderRetractionSpeed,2000
;   extruderUseCoasting,0
;   extruderCoastingDistance,0.2
;   extruderUseWipe,0
;   extruderWipeDistance,5
;   primaryExtruder,0
;   layerHeight,0.25
;   topSolidLayers,9
;   bottomSolidLayers,9
;   perimeterOutlines,5
;   printPerimetersInsideOut,1
;   startPointOption,2
;   startPointOriginX,0
;   startPointOriginY,0
;   sequentialIslands,0
;   spiralVaseMode,0
;   firstLayerHeightPercentage,90
;   firstLayerWidthPercentage,100
;   firstLayerUnderspeed,0.25
;   useRaft,1
;   raftExtruder,0
;   raftTopLayers,2
;   raftBaseLayers,1
;   raftOffset,3
;   raftSeparationDistance,0.25
;   raftTopInfill,100
;   aboveRaftSpeedMultiplier,0.3
;   useSkirt,0
;   skirtExtruder,0
;   skirtLayers,1
;   skirtOutlines,5
;   skirtOffset,2.05
;   usePrimePillar,0
;   primePillarExtruder,999
;   primePillarWidth,12
;   primePillarLocation,7
;   primePillarSpeedMultiplier,1
;   useOozeShield,0
;   oozeShieldExtruder,999
;   oozeShieldOffset,2
;   oozeShieldOutlines,1
;   oozeShieldSidewallShape,1
;   oozeShieldSidewallAngle,30
;   oozeShieldSpeedMultiplier,1
;   infillExtruder,0
;   internalInfillPattern,Full Honeycomb
;   externalInfillPattern,Rectilinear
;   infillPercentage,82
;   outlineOverlapPercentage,15
;   infillExtrusionWidthPercentage,203
;   minInfillLength,5
;   infillLayerInterval,1
;   internalInfillAngles,0,120,-120
;   overlapInternalInfillAngles,0
;   externalInfillAngles,45,-45
;   generateSupport,1
;   supportExtruder,0
;   supportInfillPercentage,20
;   supportExtraInflation,0.2
;   supportBaseLayers,1
;   denseSupportExtruder,0
;   denseSupportLayers,0
;   denseSupportInfillPercentage,70
;   supportLayerInterval,1
;   supportHorizontalPartOffset,0.4
;   supportUpperSeparationLayers,1
;   supportLowerSeparationLayers,1
;   supportType,0
;   supportGridSpacing,4
;   maxOverhangAngle,20
;   supportAngles,0
;   temperatureName,Primary Extruder,Heated Bed
;   temperatureNumber,0,1
;   temperatureSetpointCount,1,1
;   temperatureSetpointLayers,1,1
;   temperatureSetpointTemperatures,230,75
;   temperatureStabilizeAtStartup,1,1
;   temperatureHeatedBed,0,1
;   fanLayers,1,2
;   fanSpeeds,50,100
;   blipFanToFullPower,1
;   adjustSpeedForCooling,1
;   minSpeedLayerTime,15
;   minCoolingSpeedSlowdown,20
;   increaseFanForCooling,0
;   minFanLayerTime,45
;   maxCoolingFanSpeed,100
;   increaseFanForBridging,0
;   bridgingFanSpeed,100
;   use5D,1
;   relativeEdistances,0
;   allowEaxisZeroing,1
;   independentExtruderAxes,0
;   includeM10123,0
;   stickySupport,1
;   applyToolheadOffsets,0
;   gcodeXoffset,0
;   gcodeYoffset,0
;   gcodeZoffset,0
;   overrideMachineDefinition,1
;   machineTypeOverride,0
;   strokeXoverride,298
;   strokeYoverride,275
;   strokeZoverride,250
;   originOffsetXoverride,0
;   originOffsetYoverride,0
;   originOffsetZoverride,0
;   homeXdirOverride,-1
;   homeYdirOverride,-1
;   homeZdirOverride,-1
;   flipXoverride,1
;   flipYoverride,-1
;   flipZoverride,1
;   toolheadOffsets,0,0|0,0|0,0|0,0|0,0|0,0
;   overrideFirmwareConfiguration,1
;   firmwareTypeOverride,RepRap (Marlin/Repetier/Sprinter)
;   GPXconfigOverride,r2
;   baudRateOverride,115200
;   overridePrinterModels,1
;   printerModelsOverride,LulzBot_TAZ3.stl
;   startingGcode,G28 ; home all axes
;   layerChangeGcode,
;   retractionGcode,
;   toolChangeGcode,
;   endingGcode,M104 S0 ; turn off extruder,M140 S0 ; turn off bed,G28 X0 ; home X axis,M84 ; disable motors
;   exportFileFormat,gcode
;   celebration,0
;   celebrationSong,Random Song
;   postProcessing,
;   defaultSpeed,3000
;   outlineUnderspeed,0.5
;   solidInfillUnderspeed,0.8
;   supportUnderspeed,0.8
;   rapidXYspeed,7200
;   rapidZspeed,1000
;   minBridgingArea,50
;   bridgingExtraInflation,0
;   bridgingExtrusionMultiplier,1
;   bridgingSpeedMultiplier,1
;   useFixedBridgingAngle,0
;   fixedBridgingAngle,0
;   applyBridgingToPerimeters,0
;   filamentDiameters,3|3|3|3|3|3
;   filamentPricesPerKg,46|46|46|46|46|46
;   filamentDensities,1.25|1.25|1.25|1.25|1.25|1.25
;   useMinPrintHeight,0
;   minPrintHeight,0
;   useMaxPrintHeight,0
;   maxPrintHeight,0
;   useDiaphragm,0
;   diaphragmLayerInterval,20
;   robustSlicing,1
;   mergeAllIntoSolid,0
;   onlyRetractWhenCrossingOutline,1
;   retractBetweenLayers,1
;   useRetractionMinTravel,0
;   retractionMinTravel,3
;   retractWhileWiping,0
;   onlyWipeOutlines,1
;   avoidCrossingOutline,0
;   maxMovementDetourFactor,3
;   toolChangeRetractionDistance,12
;   toolChangeExtraRestartDistance,-0.5
;   toolChangeRetractionSpeed,600
;   externalThinWallType,0
;   internalThinWallType,2
;   thinWallAllowedOverlapPercentage,10
;   singleExtrusionMinLength,1
;   singleExtrusionMinPrintingWidthPercentage,50
;   singleExtrusionMaxPrintingWidthPercentage,200
;   singleExtrusionEndpointExtension,0.2
;   horizontalSizeCompensation,0
G90
M82
M106 S255
G4 P500
M106 S128
M140 S75
M190 S75
M104 S230 T0
M109 S230 T0
G28 ; home all axes
; process Process1
; layer 1, Z = 0.394
T0
G92 E0.0000
G1 E-0.9000 F2000
; feature raft
; tool H0.394 W0.700
G1 Z0.394 F1000
G1 X91.186 Y14.657 F7200
G1 E0.0000 F2000
G92 E0.0000
G1 X92.739 Y13.104 E0.0865 F188
G1 X95.186 Y13.104 E0.1829
G1 X95.186 Y10.657 E0.2793
G1 X96.739 Y9.104 E0.3657
G1 X103.774 Y9.104 E0.6428
G1 X105.326 Y10.657 E0.7292
G1 X105.326 Y12.994 E0.8213
G1 X183.186 Y13.343 E3.8877
G1 X183.186 Y10.657 E3.9934
G1 X184.739 Y9.104 E4.0799
G1 X195.774 Y9.104 E4.5145
G1 X196.256 Y9.587 E4.5414
G1 X196.739 Y9.104 E4.5682
G1 X203.774 Y9.104 E4.8453
G1 X204.256 Y9.587 E4.8722
G1 X204.739 Y9.104 E4.8990
G1 X211.774 Y9.104 E5.1761
G1 X213.326 Y10.657 E5.2626
G1 X213.326 Y21.692 E5.6972
G1 X211.774 Y23.244 E5.7836
G1 X203.007 Y23.244 E6.1289
G1 X202.991 Y27.318 E6.2893
G1 X203.887 Y27.451 E6.3250
G1 X204.251 Y27.559 E6.3399
G1 X204.877 Y27.849 E6.3671
G1 X205.195 Y28.055 E6.3821
G1 X205.715 Y28.510 E6.4092
G1 X205.962 Y28.797 E6.4242
G1 X206.333 Y29.380 E6.4514
G1 X206.489 Y29.725 E6.4663
G1 X206.667 Y30.343 E6.4916
G1 X206.716 Y30.623 E6.5028
G1 X206.739 Y30.968 E6.5164
G1 X206.742 Y31.062 E6.5201
G1 X206.643 Y53.104 E7.3882
G1 X211.774 Y53.104 E7.5903
G1 X213.326 Y54.657 E7.6767
G1 X213.326 Y65.692 E8.1113
G1 X211.774 Y67.244 E8.1978
G1 X196.739 Y67.244 E8.7899
G1 X195.186 Y65.692 E8.8764
G1 X195.186 Y61.856 E9.0275
G1 X159.105 Y61.694 E10.4485
G1 X157.560 Y60.135 E10.5349
G1 X157.579 Y55.966 E10.6991
G1 X152.679 Y55.944 E10.8921
G1 X152.660 Y60.113 E11.0563
G1 X151.101 Y61.658 E11.1427
G1 X109.326 Y61.471 E12.7879
G1 X109.326 Y65.692 E12.9542
G1 X107.774 Y67.244 E13.0406
G1 X100.739 Y67.244 E13.3177
G1 X100.256 Y66.762 E13.3446
G1 X99.774 Y67.244 E13.3714
G1 X92.739 Y67.244 E13.6485
G1 X91.186 Y65.692 E13.7350
G1 X91.186 Y58.657 E14.0120
G1 X92.739 Y57.104 E14.0985
G1 X95.186 Y57.104 E14.1949
G1 X95.186 Y54.657 E14.2913
G1 X96.739 Y53.104 E14.3777
G1 X101.022 Y53.104 E14.5464
G1 X101.138 Y27.244 E15.5649
G1 X92.739 Y27.244 E15.8957
G1 X91.186 Y25.692 E15.9821
G1 X91.186 Y14.657 E16.4167
G92 E0.0000
G1 E-0.9000 F2000
G1 X96.510 Y10.174 F7200
G1 E0.0000 F2000
G92 E0.0000
G1 X104.003 Y10.174 E0.2951 F188
G1 X104.731 Y10.903 E0.3357
G1 X104.731 Y12.174 E0.3857
G1 X95.781 Y12.174 E0.7382
G1 X95.781 Y13.699 E0.7983
G1 X92.985 Y13.699 E0.9084
G1 X92.510 Y14.174 E0.9348
G1 X212.731 Y14.174 E5.6695
G1 X212.731 Y16.174 E5.7483
G1 X91.781 Y16.174 E10.5116
G1 X91.781 Y18.174 E10.5904
G1 X212.731 Y18.174 E15.3538
G1 X212.731 Y20.174 E15.4325
G1 X91.781 Y20.174 E20.1959
G1 X91.781 Y22.174 E20.2746
G1 X212.003 Y22.174 E25.0093
G1 X211.528 Y22.649 E25.0358
G1 X202.414 Y22.649 E25.3947
G1 X202.409 Y24.174 E25.4547
G1 X91.781 Y24.174 E29.8115
G1 X91.781 Y25.445 E29.8616
G1 X92.510 Y26.174 E29.9022
G1 X202.401 Y26.174 E34.2300
G1 X202.395 Y27.831 E34.2953
G1 X203.758 Y28.033 E34.3495
G1 X204.040 Y28.117 E34.3611
G1 X204.163 Y28.174 E34.3665
G1 X101.729 Y28.174 E38.4006
G1 X101.720 Y30.174 E38.4794
G1 X205.999 Y30.174 E42.5862
G1 X206.086 Y30.478 E42.5986
G1 X206.125 Y30.695 E42.6073
G1 X206.145 Y30.997 E42.6192
G1 X206.147 Y31.070 E42.6221
G1 X206.142 Y32.174 E42.6656
G1 X101.711 Y32.174 E46.7784
G1 X101.702 Y34.174 E46.8571
G1 X206.133 Y34.174 E50.9699
G1 X206.124 Y36.174 E51.0487
G1 X101.693 Y36.174 E55.1615
G1 X101.684 Y38.174 E55.2403
G1 X206.115 Y38.174 E59.3531
G1 X206.106 Y40.174 E59.4318
G1 X101.675 Y40.174 E63.5446
G1 X101.666 Y42.174 E63.6234
G1 X206.097 Y42.174 E67.7362
G1 X206.088 Y44.174 E67.8150
G1 X101.657 Y44.174 E71.9278
G1 X101.648 Y46.174 E72.0065
G1 X206.079 Y46.174 E76.1193
G1 X206.070 Y48.174 E76.1981
G1 X101.639 Y48.174 E80.3109
G1 X101.630 Y50.174 E80.3897
G1 X206.061 Y50.174 E84.5025
G1 X206.053 Y52.174 E84.5812
G1 X101.621 Y52.174 E88.6940
G1 X101.615 Y53.699 E88.7541
G1 X96.985 Y53.699 E88.9364
G1 X96.510 Y54.174 E88.9629
G1 X212.003 Y54.174 E93.5113
G1 X212.731 Y54.903 E93.5519
G1 X212.731 Y56.174 E93.6019
G1 X158.173 Y56.174 E95.7506
G1 X158.176 Y55.374 E95.7822
G1 X152.086 Y55.346 E96.0220
G1 X152.083 Y56.174 E96.0546
G1 X95.781 Y56.174 E98.2719
G1 X95.781 Y57.699 E98.3320
G1 X92.985 Y57.699 E98.4421
G1 X92.510 Y58.174 E98.4685
G1 X152.074 Y58.174 E100.8143
G1 X152.066 Y59.864 E100.8809
G1 X151.753 Y60.174 E100.8982
G1 X91.781 Y60.174 E103.2601
G1 X91.781 Y62.174 E103.3388
G1 X108.731 Y62.174 E104.0064
G1 X108.731 Y64.174 E104.0851
G1 X91.781 Y64.174 E104.7527
G1 X91.781 Y65.445 E104.8027
G1 X92.510 Y66.174 E104.8433
G1 X100.003 Y66.174 E105.1384
G1 X100.256 Y65.920 E105.1525
G1 X100.510 Y66.174 E105.1667
G1 X108.003 Y66.174 E105.4618
G92 E0.0000
G1 E-0.9000 F2000
G1 X158.164 Y58.174 F7200
G1 E0.0000 F2000
G92 E0.0000
G1 X212.731 Y58.174 E2.1490 F188
G1 X212.731 Y60.174 E2.2278
G1 X158.437 Y60.174 E4.3661
G1 X159.355 Y61.100 E4.4174
G1 X195.781 Y61.263 E5.8520
G1 X195.781 Y62.174 E5.8879
G1 X212.731 Y62.174 E6.5554
G1 X212.731 Y64.174 E6.6342
G1 X195.781 Y64.174 E7.3017
G1 X195.781 Y65.445 E7.3518
G1 X196.510 Y66.174 E7.3924
G1 X212.003 Y66.174 E8.0025
G92 E0.0000
G1 E-0.9000 F2000
G1 X183.781 Y12.174 F7200
G1 E0.0000 F2000
G92 E0.0000
G1 X212.731 Y12.174 E1.1401 F188
G1 X212.731 Y10.903 E1.1902
G1 X212.003 Y10.174 E1.2308
G1 X204.510 Y10.174 E1.5259
G1 X204.256 Y10.428 E1.5400
G1 X204.003 Y10.174 E1.5541
G1 X196.510 Y10.174 E1.8492
G1 X196.256 Y10.428 E1.8633
G1 X196.003 Y10.174 E1.8775
G1 X184.510 Y10.174 E2.3301
G92 E0.0000
G1 E-0.9000 F2000
; layer 2, Z = 0.588
M106 S255
; tool H0.194 W0.350
G1 Z0.588 F1000
G1 X211.612 Y8.929 F7200
G1 E0.0000 F2000
G92 E0.0000
G1 X213.501 Y10.819 E0.0260 F2250
G1 X213.501 Y11.314 E0.0308
G1 X211.117 Y8.929 E0.0636
G1 X210.622 Y8.929 E0.0684
G1 X213.501 Y11.809 E0.1080
G1 X213.501 Y12.304 E0.1128
G1 X210.127 Y8.929 E0.1592
G1 X209.632 Y8.929 E0.1640
G1 X213.501 Y12.799 E0.2172
G1 X213.501 Y13.294 E0.2221
G1 X209.137 Y8.929 E0.2821
G1 X208.642 Y8.929 E0.2869
G1 X213.501 Y13.789 E0.3537
G1 X213.501 Y14.284 E0.3585
G1 X208.147 Y8.929 E0.4322
G1 X207.652 Y8.929 E0.4370
G1 X213.501 Y14.779 E0.5174
G1 X213.501 Y15.274 E0.5222
G1 X207.157 Y8.929 E0.6095
G1 X206.662 Y8.929 E0.6143
G1 X213.501 Y15.769 E0.7083
G1 X213.501 Y16.264 E0.7132
G1 X206.167 Y8.929 E0.8140
G1 X205.672 Y8.929 E0.8188
G1 X213.501 Y16.758 E0.9265
G1 X213.501 Y17.253 E0.9313
G1 X205.177 Y8.929 E1.0458
G1 X204.682 Y8.929 E1.0506
G1 X213.501 Y17.748 E1.1719
G1 X213.501 Y18.243 E1.1767
G1 X204.427 Y9.169 E1.3015
G1 X204.256 Y9.339 E1.3038
G1 X203.847 Y8.929 E1.3095
G1 X203.692 Y8.929 E1.3110
G1 X213.501 Y18.738 E1.4459
G1 X213.501 Y19.233 E1.4507
G1 X203.197 Y8.929 E1.5924
G1 X202.702 Y8.929 E1.5972
G1 X213.501 Y19.728 E1.7457
G1 X213.501 Y20.223 E1.7505
G1 X202.207 Y8.929 E1.9058
G1 X201.712 Y8.929 E1.9107
G1 X213.501 Y20.718 E2.0728
G1 X213.501 Y21.213 E2.0776
G1 X201.217 Y8.929 E2.2465
G1 X200.723 Y8.929 E2.2513
G1 X213.501 Y21.708 E2.4271
G1 X213.501 Y21.764 E2.4276
G1 X213.282 Y21.984 E2.4306
G1 X200.228 Y8.929 E2.6102
G1 X199.733 Y8.929 E2.6150
G1 X213.035 Y22.231 E2.7979
G1 X212.787 Y22.479 E2.8013
G1 X199.238 Y8.929 E2.9876
G1 X198.743 Y8.929 E2.9925
G1 X212.540 Y22.726 E3.1822
G1 X212.292 Y22.974 E3.1856
G1 X198.248 Y8.929 E3.3787
G1 X197.753 Y8.929 E3.3835
G1 X212.045 Y23.221 E3.5801
G1 X211.847 Y23.419 E3.5828
G1 X211.748 Y23.419 E3.5838
G1 X197.258 Y8.929 E3.7830
G1 X196.763 Y8.929 E3.7879
G1 X211.253 Y23.419 E3.9871
G1 X210.758 Y23.419 E3.9919
G1 X196.467 Y9.129 E4.1885
G1 X196.256 Y9.339 E4.1914
G1 X195.847 Y8.929 E4.1970
G1 X195.773 Y8.929 E4.1977
G1 X210.263 Y23.419 E4.3970
G1 X209.768 Y23.419 E4.4018
G1 X195.278 Y8.929 E4.6011
G1 X194.783 Y8.929 E4.6059
G1 X209.273 Y23.419 E4.8051
G1 X208.778 Y23.419 E4.8100
G1 X194.288 Y8.929 E5.0092
G1 X193.793 Y8.929 E5.0140
G1 X208.283 Y23.419 E5.2133
G1 X207.788 Y23.419 E5.2181
G1 X193.298 Y8.929 E5.4174
G1 X192.803 Y8.929 E5.4222
G1 X207.293 Y23.419 E5.6215
G1 X206.798 Y23.419 E5.6263
G1 X192.308 Y8.929 E5.8255
G1 X191.813 Y8.929 E5.8304
G1 X206.303 Y23.419 E6.0296
G1 X205.808 Y23.419 E6.0344
G1 X191.318 Y8.929 E6.2337
G1 X190.823 Y8.929 E6.2385
G1 X205.313 Y23.419 E6.4378
G1 X204.818 Y23.419 E6.4426
G1 X190.328 Y8.929 E6.6419
G1 X189.833 Y8.929 E6.6467
G1 X204.323 Y23.419 E6.8459
G1 X203.828 Y23.419 E6.8508
G1 X189.338 Y8.929 E7.0500
G1 X188.843 Y8.929 E7.0548
G1 X203.333 Y23.419 E7.2541
G1 X203.181 Y23.419 E7.2556
G1 X203.180 Y23.761 E7.2589
G1 X188.348 Y8.929 E7.4629
G1 X187.853 Y8.929 E7.4677
G1 X203.178 Y24.254 E7.6784
G1 X203.176 Y24.747 E7.6832
G1 X187.358 Y8.929 E7.9008
G1 X186.863 Y8.929 E7.9056
G1 X203.174 Y25.240 E8.1299
G1 X203.173 Y25.734 E8.1347
G1 X186.368 Y8.929 E8.3658
G1 X185.873 Y8.929 E8.3706
G1 X203.171 Y26.227 E8.6085
G1 X203.169 Y26.720 E8.6133
G1 X185.378 Y8.929 E8.8579
G1 X184.883 Y8.929 E8.8627
G1 X206.914 Y30.960 E9.1657
G1 X206.917 Y31.060 E9.1667
G1 X206.915 Y31.456 E9.1705
G1 X184.527 Y9.068 E9.4784
G1 X184.280 Y9.316 E9.4818
G1 X206.913 Y31.949 E9.7931
G1 X206.911 Y32.442 E9.7979
G1 X184.032 Y9.563 E10.1125
G1 X183.785 Y9.811 E10.1159
G1 X206.909 Y32.935 E10.4339
G1 X206.907 Y33.427 E10.4387
G1 X183.537 Y10.058 E10.7601
G1 X183.290 Y10.306 E10.7635
G1 X206.904 Y33.920 E11.0882
G1 X206.902 Y34.413 E11.0930
G1 X183.042 Y10.553 E11.4211
G1 X183.011 Y10.584 E11.4216
G1 X183.011 Y11.017 E11.4258
G1 X206.900 Y34.906 E11.7543
G1 X206.898 Y35.398 E11.7591
G1 X183.011 Y11.512 E12.0876
G1 X183.011 Y12.007 E12.0924
G1 X206.896 Y35.891 E12.4208
G1 X206.893 Y36.384 E12.4256
G1 X183.011 Y12.502 E12.7540
G1 X183.011 Y12.997 E12.7589
G1 X206.891 Y36.877 E13.0873
G1 X206.889 Y37.370 E13.0920
G1 X182.685 Y13.165 E13.4249
G1 X182.188 Y13.163 E13.4297
G1 X206.887 Y37.862 E13.7694
G1 X206.884 Y38.355 E13.7742
G1 X181.690 Y13.161 E14.1207
G1 X181.193 Y13.159 E14.1255
G1 X206.882 Y38.848 E14.4788
G1 X206.880 Y39.341 E14.4836
G1 X180.696 Y13.156 E14.8436
G1 X180.199 Y13.154 E14.8485
G1 X206.878 Y39.833 E15.2154
G1 X206.876 Y40.326 E15.2202
G1 X179.702 Y13.152 E15.5939
G1 X179.204 Y13.150 E15.5987
G1 X206.873 Y40.819 E15.9792
G1 X206.871 Y41.312 E15.9840
G1 X178.707 Y13.148 E16.3713
G1 X178.210 Y13.145 E16.3761
G1 X206.869 Y41.804 E16.7703
G1 X206.867 Y42.297 E16.7751
G1 X177.713 Y13.143 E17.1760
G1 X177.216 Y13.141 E17.1808
G1 X206.865 Y42.790 E17.5886
G1 X206.862 Y43.283 E17.5934
G1 X176.718 Y13.139 E18.0079
G1 X176.221 Y13.136 E18.0127
G1 X206.860 Y43.775 E18.4341
G1 X206.858 Y44.268 E18.4389
G1 X175.724 Y13.134 E18.8670
G1 X175.227 Y13.132 E18.8719
G1 X206.856 Y44.761 E19.3068
G1 X206.854 Y45.254 E19.3116
G1 X174.730 Y13.130 E19.7534
