; G-Code generated by Simplify3D(R) Version 4.1.2
; Jun 10, 2022 at 2:42:45 PM
; Settings Summary
;   processName,Process1
;   applyToModels,Standing Lef Left,Standing Leg Right
;   profileName,LulzBot TAZ 5 (modified)
;   profileVersion,2021-08-27 09:31:58
;   baseProfile,
;   printMaterial,PETG
;   printQuality,Medium
;   printExtruders,
;   extruderName,Primary Extruder
;   extruderToolheadNumber,0
;   extruderDiameter,0.35
;   extruderAutoWidth,0
;   extruderWidth,0.4
;   extrusionMultiplier,1.01
;   extruderUseRetract,1
;   extruderRetractionDistance,0.9
;   extruderExtraRestartDistance,0
;   extruderRetractionZLift,0
;   extruderRetractionSpeed,2000
;   extruderUseCoasting,0
;   extruderCoastingDistance,0.2
;   extruderUseWipe,0
;   extruderWipeDistance,5
;   primaryExtruder,0
;   layerHeight,0.25
;   topSolidLayers,9
;   bottomSolidLayers,9
;   perimeterOutlines,5
;   printPerimetersInsideOut,1
;   startPointOption,2
;   startPointOriginX,0
;   startPointOriginY,0
;   sequentialIslands,0
;   spiralVaseMode,0
;   firstLayerHeightPercentage,90
;   firstLayerWidthPercentage,100
;   firstLayerUnderspeed,0.25
;   useRaft,1
;   raftExtruder,0
;   raftTopLayers,2
;   raftBaseLayers,1
;   raftOffset,3
;   raftSeparationDistance,0.25
;   raftTopInfill,100
;   aboveRaftSpeedMultiplier,0.3
;   useSkirt,0
;   skirtExtruder,0
;   skirtLayers,1
;   skirtOutlines,5
;   skirtOffset,2.05
;   usePrimePillar,0
;   primePillarExtruder,999
;   primePillarWidth,12
;   primePillarLocation,7
;   primePillarSpeedMultiplier,1
;   useOozeShield,0
;   oozeShieldExtruder,999
;   oozeShieldOffset,2
;   oozeShieldOutlines,1
;   oozeShieldSidewallShape,1
;   oozeShieldSidewallAngle,30
;   oozeShieldSpeedMultiplier,1
;   infillExtruder,0
;   internalInfillPattern,Full Honeycomb
;   externalInfillPattern,Rectilinear
;   infillPercentage,82
;   outlineOverlapPercentage,15
;   infillExtrusionWidthPercentage,203
;   minInfillLength,5
;   infillLayerInterval,1
;   internalInfillAngles,0,120,-120
;   overlapInternalInfillAngles,0
;   externalInfillAngles,45,-45
;   generateSupport,1
;   supportExtruder,0
;   supportInfillPercentage,20
;   supportExtraInflation,0.2
;   supportBaseLayers,1
;   denseSupportExtruder,0
;   denseSupportLayers,0
;   denseSupportInfillPercentage,70
;   supportLayerInterval,1
;   supportHorizontalPartOffset,0.4
;   supportUpperSeparationLayers,1
;   supportLowerSeparationLayers,1
;   supportType,0
;   supportGridSpacing,4
;   maxOverhangAngle,20
;   supportAngles,0
;   temperatureName,Primary Extruder,Heated Bed
;   temperatureNumber,0,1
;   temperatureSetpointCount,1,1
;   temperatureSetpointLayers,1,1
;   temperatureSetpointTemperatures,230,75
;   temperatureStabilizeAtStartup,1,1
;   temperatureHeatedBed,0,1
;   fanLayers,1,2
;   fanSpeeds,50,100
;   blipFanToFullPower,1
;   adjustSpeedForCooling,1
;   minSpeedLayerTime,15
;   minCoolingSpeedSlowdown,20
;   increaseFanForCooling,0
;   minFanLayerTime,45
;   maxCoolingFanSpeed,100
;   increaseFanForBridging,0
;   bridgingFanSpeed,100
;   use5D,1
;   relativeEdistances,0
;   allowEaxisZeroing,1
;   independentExtruderAxes,0
;   includeM10123,0
;   stickySupport,1
;   applyToolheadOffsets,0
;   gcodeXoffset,0
;   gcodeYoffset,0
;   gcodeZoffset,0
;   overrideMachineDefinition,1
;   machineTypeOverride,0
;   strokeXoverride,298
;   strokeYoverride,275
;   strokeZoverride,250
;   originOffsetXoverride,0
;   originOffsetYoverride,0
;   originOffsetZoverride,0
;   homeXdirOverride,-1
;   homeYdirOverride,-1
;   homeZdirOverride,-1
;   flipXoverride,1
;   flipYoverride,-1
;   flipZoverride,1
;   toolheadOffsets,0,0|0,0|0,0|0,0|0,0|0,0
;   overrideFirmwareConfiguration,1
;   firmwareTypeOverride,RepRap (Marlin/Repetier/Sprinter)
;   GPXconfigOverride,r2
;   baudRateOverride,115200
;   overridePrinterModels,1
;   printerModelsOverride,LulzBot_TAZ3.stl
;   startingGcode,G28 ; home all axes
;   layerChangeGcode,
;   retractionGcode,
;   toolChangeGcode,
;   endingGcode,M104 S0 ; turn off extruder,M140 S0 ; turn off bed,G28 X0 ; home X axis,M84 ; disable motors
;   exportFileFormat,gcode
;   celebration,0
;   celebrationSong,Random Song
;   postProcessing,
;   defaultSpeed,3000
;   outlineUnderspeed,0.5
;   solidInfillUnderspeed,0.8
;   supportUnderspeed,0.8
;   rapidXYspeed,7200
;   rapidZspeed,1000
;   minBridgingArea,50
;   bridgingExtraInflation,0
;   bridgingExtrusionMultiplier,1
;   bridgingSpeedMultiplier,1
;   useFixedBridgingAngle,0
;   fixedBridgingAngle,0
;   applyBridgingToPerimeters,0
;   filamentDiameters,3|3|3|3|3|3
;   filamentPricesPerKg,46|46|46|46|46|46
;   filamentDensities,1.25|1.25|1.25|1.25|1.25|1.25
;   useMinPrintHeight,0
;   minPrintHeight,0
;   useMaxPrintHeight,0
;   maxPrintHeight,0
;   useDiaphragm,0
;   diaphragmLayerInterval,20
;   robustSlicing,1
;   mergeAllIntoSolid,0
;   onlyRetractWhenCrossingOutline,1
;   retractBetweenLayers,1
;   useRetractionMinTravel,0
;   retractionMinTravel,3
;   retractWhileWiping,0
;   onlyWipeOutlines,1
;   avoidCrossingOutline,0
;   maxMovementDetourFactor,3
;   toolChangeRetractionDistance,12
;   toolChangeExtraRestartDistance,-0.5
;   toolChangeRetractionSpeed,600
;   externalThinWallType,0
;   internalThinWallType,2
;   thinWallAllowedOverlapPercentage,10
;   singleExtrusionMinLength,1
;   singleExtrusionMinPrintingWidthPercentage,50
;   singleExtrusionMaxPrintingWidthPercentage,200
;   singleExtrusionEndpointExtension,0.2
;   horizontalSizeCompensation,0
G90
M82
M106 S255
G4 P500
M106 S128
M140 S75
M190 S75
M104 S230 T0
M109 S230 T0
G28 ; home all axes
; process Process1
; layer 1, Z = 0.394
T0
G92 E0.0000
G1 E-0.9000 F2000
; feature raft
; tool H0.394 W0.700
G1 Z0.394 F1000
G1 X102.510 Y23.741 F7200
G1 E0.0000 F2000
G92 E0.0000
G1 X102.649 Y23.231 E0.0208 F188
G1 X102.842 Y22.820 E0.0387
G1 X103.218 Y22.280 E0.0646
G1 X103.591 Y21.920 E0.0850
G1 X104.148 Y21.562 E0.1111
G1 X104.568 Y21.384 E0.1291
G1 X105.077 Y21.265 E0.1496
G1 X105.399 Y21.231 E0.1624
G1 X108.139 Y21.273 E0.2703
G1 X108.526 Y21.337 E0.2858
G1 X113.148 Y22.824 E0.4770
G1 X114.857 Y23.315 E0.5470
G1 X116.553 Y23.742 E0.6159
G1 X118.223 Y24.089 E0.6831
G1 X119.865 Y24.342 E0.7485
G1 X121.507 Y24.489 E0.8134
G1 X122.283 Y24.516 E0.8440
G1 X123.061 Y24.514 E0.8746
G1 X124.706 Y24.420 E0.9395
G1 X126.356 Y24.221 E1.0050
G1 X128.036 Y23.928 E1.0722
G1 X129.744 Y23.556 E1.1410
G1 X131.468 Y23.121 E1.2110
G1 X136.289 Y21.742 E1.4085
G1 X137.004 Y21.734 E1.4367
G1 X140.884 Y22.756 E1.5947
G1 X142.601 Y23.175 E1.6643
G1 X145.237 Y23.735 E1.7704
G1 X146.909 Y24.019 E1.8372
G1 X148.571 Y24.229 E1.9032
G1 X150.231 Y24.354 E1.9688
G1 X151.083 Y24.382 E2.0023
G1 X151.878 Y24.382 E2.0336
G1 X153.544 Y24.312 E2.0993
G1 X155.215 Y24.159 E2.1654
G1 X156.901 Y23.936 E2.2324
G1 X159.611 Y23.469 E2.3407
G1 X165.215 Y22.313 E2.5660
G1 X165.838 Y22.332 E2.5906
G1 X171.463 Y23.857 E2.8201
G1 X174.046 Y24.452 E2.9245
G1 X175.724 Y24.763 E2.9917
G1 X177.385 Y24.993 E3.0577
G1 X179.043 Y25.129 E3.1233
G1 X179.832 Y25.155 E3.1543
G1 X180.622 Y25.154 E3.1855
G1 X182.284 Y25.072 E3.2510
G1 X183.952 Y24.897 E3.3170
G1 X185.639 Y24.640 E3.3842
G1 X188.239 Y24.129 E3.4886
G1 X193.758 Y22.824 E3.7119
G1 X194.064 Y22.789 E3.7241
G1 X199.621 Y22.789 E3.9429
G1 X199.634 Y22.789 E3.9434
G1 X206.138 Y22.862 E4.1996
G1 X207.674 Y24.441 E4.2864
G1 X207.644 Y26.315 E4.3602
G1 X207.642 Y26.373 E4.3625
G1 X207.598 Y27.091 E4.3908
G1 X207.499 Y27.522 E4.4082
G1 X203.955 Y36.065 E4.7725
G1 X203.727 Y36.215 E4.7832
G1 X203.655 Y36.388 E4.7906
G1 X202.883 Y36.894 E4.8270
G1 X203.027 Y37.391 E4.8473
G1 X205.312 Y37.426 E4.9373
G1 X206.840 Y39.002 E5.0238
G1 X206.813 Y40.765 E5.0932
G1 X206.709 Y41.260 E5.1131
G1 X203.129 Y49.823 E5.4786
G1 X201.769 Y50.713 E5.5427
G1 X111.717 Y49.305 E9.0896
G1 X111.449 Y49.528 E9.1033
G1 X111.330 Y49.616 E9.1092
G1 X110.894 Y49.902 E9.1297
G1 X110.765 Y49.977 E9.1355
G1 X110.300 Y50.213 E9.1561
G1 X110.165 Y50.272 E9.1619
G1 X109.676 Y50.455 E9.1825
G1 X109.534 Y50.499 E9.1883
G1 X109.028 Y50.626 E9.2089
G1 X108.883 Y50.654 E9.2147
G1 X108.366 Y50.724 E9.2352
G1 X108.218 Y50.735 E9.2411
G1 X107.696 Y50.747 E9.2616
G1 X107.548 Y50.742 E9.2675
G1 X107.029 Y50.695 E9.2880
G1 X106.882 Y50.674 E9.2939
G1 X106.371 Y50.569 E9.3144
G1 X106.227 Y50.532 E9.3202
G1 X105.731 Y50.371 E9.3408
G1 X105.593 Y50.318 E9.3466
G1 X105.117 Y50.102 E9.3672
G1 X104.986 Y50.034 E9.3730
G1 X104.538 Y49.767 E9.3935
G1 X104.414 Y49.684 E9.3994
G1 X103.999 Y49.369 E9.4199
G1 X103.886 Y49.273 E9.4258
G1 X103.508 Y48.914 E9.4463
G1 X103.406 Y48.806 E9.4522
G1 X103.070 Y48.406 E9.4727
G1 X102.982 Y48.288 E9.4785
G1 X102.693 Y47.853 E9.4991
G1 X102.618 Y47.726 E9.5049
G1 X102.379 Y47.262 E9.5255
G1 X102.319 Y47.126 E9.5313
G1 X102.133 Y46.639 E9.5518
G1 X102.088 Y46.498 E9.5577
G1 X101.958 Y45.992 E9.5782
G1 X101.929 Y45.847 E9.5841
G1 X101.857 Y45.330 E9.6046
G1 X101.844 Y45.182 E9.6105
G1 X101.837 Y44.906 E9.6214
G1 X101.575 Y43.255 E9.6872
G1 X101.559 Y43.026 E9.6962
G1 X101.626 Y39.040 E9.8532
G1 X101.691 Y38.650 E9.8688
G1 X101.928 Y37.922 E9.8989
G1 X102.140 Y37.521 E9.9168
G1 X102.568 Y36.965 E9.9444
G1 X102.906 Y36.655 E9.9625
G1 X103.576 Y36.226 E9.9938
G1 X103.994 Y36.050 E10.0117
G1 X104.749 Y35.875 E10.0422
G1 X104.229 Y35.326 E10.0720
G1 X103.893 Y34.928 E10.0925
G1 X103.803 Y34.809 E10.0984
G1 X103.513 Y34.376 E10.1189
G1 X103.438 Y34.248 E10.1247
G1 X103.198 Y33.785 E10.1453
G1 X103.137 Y33.650 E10.1511
G1 X102.950 Y33.163 E10.1717
G1 X102.905 Y33.021 E10.1775
G1 X102.774 Y32.517 E10.1981
G1 X102.744 Y32.371 E10.2039
G1 X102.670 Y31.855 E10.2244
G1 X102.657 Y31.707 E10.2303
G1 X102.649 Y31.431 E10.2412
G1 X102.392 Y29.838 E10.3047
G1 X102.376 Y29.606 E10.3139
G1 X102.463 Y24.071 E10.5319
G1 X102.510 Y23.741 E10.5450
G92 E0.0000
G1 E-0.9000 F2000
G1 X111.204 Y36.743 F7200
G1 E0.0000 F2000
G92 E0.0000
G1 X112.963 Y37.127 E0.0709 F188
G1 X115.560 Y37.597 E0.1749
G1 X117.262 Y37.844 E0.2426
G1 X118.953 Y38.027 E0.3096
G1 X120.645 Y38.137 E0.3764
G1 X121.462 Y38.160 E0.4085
G1 X122.279 Y38.163 E0.4407
G1 X123.973 Y38.105 E0.5075
G1 X125.670 Y37.975 E0.5745
G1 X127.378 Y37.781 E0.6422
G1 X129.989 Y37.392 E0.7462
G1 X133.290 Y36.778 E0.8784
G1 X133.238 Y36.147 E0.9033
G1 X112.536 Y35.806 E1.7187
G1 X112.274 Y36.025 E1.7322
G1 X112.155 Y36.114 E1.7380
G1 X111.204 Y36.743 E1.7829
G92 E0.0000
G1 E-0.9000 F2000
G1 X138.483 Y36.864 F7200
G1 E0.0000 F2000
G92 E0.0000
G1 X141.737 Y37.575 E0.1312 F188
G1 X144.335 Y38.045 E0.2351
G1 X146.036 Y38.291 E0.3028
G1 X147.728 Y38.475 E0.3699
G1 X149.420 Y38.585 E0.4366
G1 X150.236 Y38.608 E0.4688
G1 X151.053 Y38.610 E0.5010
G1 X152.747 Y38.553 E0.5678
G1 X154.444 Y38.422 E0.6348
G1 X156.152 Y38.229 E0.7025
G1 X158.763 Y37.840 E0.8064
G1 X161.938 Y37.249 E0.9336
G1 X161.885 Y36.618 E0.9585
G1 X138.556 Y36.234 E1.8774
G1 X138.483 Y36.864 E1.9024
G92 E0.0000
G1 E-0.9000 F2000
G1 X167.382 Y37.339 F7200
G1 E0.0000 F2000
G92 E0.0000
G1 X170.510 Y38.022 E0.1261 F188
G1 X173.108 Y38.493 E0.2301
G1 X174.809 Y38.739 E0.2978
G1 X176.501 Y38.922 E0.3648
G1 X178.193 Y39.032 E0.4316
G1 X179.009 Y39.056 E0.4637
G1 X179.826 Y39.058 E0.4959
G1 X181.520 Y39.000 E0.5627
G1 X183.217 Y38.870 E0.6297
G1 X184.925 Y38.676 E0.6974
G1 X187.536 Y38.287 E0.8014
G1 X190.585 Y37.720 E0.9235
G1 X190.532 Y37.089 E0.9484
G1 X167.455 Y36.709 E1.8574
G1 X167.382 Y37.339 E1.8823
G92 E0.0000
G1 E-0.9000 F2000
G1 X201.931 Y49.896 F7200
G1 E0.0000 F2000
G92 E0.0000
G1 X187.574 Y49.896 E0.5654 F188
G1 X111.506 Y48.707 E3.5616
G1 X111.082 Y49.059 E3.5833
G1 X110.989 Y49.128 E3.5878
G1 X110.581 Y49.396 E3.6070
G1 X110.481 Y49.453 E3.6116
G1 X110.046 Y49.674 E3.6308
G1 X109.941 Y49.721 E3.6353
G1 X109.483 Y49.892 E3.6546
G1 X109.469 Y49.896 E3.6552
G1 X106.196 Y49.896 E3.7841
G1 X105.930 Y49.810 E3.7951
G1 X105.823 Y49.769 E3.7996
G1 X105.378 Y49.567 E3.8188
G1 X105.276 Y49.514 E3.8233
G1 X104.856 Y49.264 E3.8426
G1 X104.760 Y49.200 E3.8471
G1 X104.371 Y48.905 E3.8664
G1 X104.283 Y48.831 E3.8709
G1 X103.930 Y48.494 E3.8901
G1 X103.851 Y48.410 E3.8946
G1 X103.537 Y48.036 E3.9139
G1 X103.468 Y47.945 E3.9184
G1 X103.436 Y47.896 E3.9207
G1 X203.290 Y47.896 E7.8532
G1 X204.126 Y45.896 E7.9386
G1 X102.548 Y45.896 E11.9391
G1 X102.539 Y45.860 E11.9405
G1 X102.516 Y45.747 E11.9450
G1 X102.448 Y45.264 E11.9643
G1 X102.439 Y45.149 E11.9688
G1 X102.430 Y44.851 E11.9806
G1 X102.279 Y43.896 E12.0186
G1 X204.962 Y43.896 E16.0626
G1 X205.799 Y41.896 E16.1480
G1 X102.173 Y41.896 E20.2290
G1 X102.207 Y39.896 E20.3078
G1 X206.231 Y39.896 E24.4046
G1 X206.241 Y39.240 E24.4304
G1 X205.056 Y38.017 E24.4975
G1 X202.578 Y37.979 E24.5951
G1 X202.554 Y37.896 E24.5985
G1 X191.197 Y37.896 E25.0458
G1 X191.223 Y38.206 E25.0580
G1 X187.635 Y38.874 E25.2018
G1 X185.003 Y39.266 E25.3066
G1 X183.273 Y39.462 E25.3751
G1 X181.553 Y39.595 E25.4431
G1 X179.835 Y39.653 E25.5108
G1 X179.000 Y39.651 E25.5437
G1 X178.165 Y39.627 E25.5766
G1 X176.449 Y39.515 E25.6443
G1 X174.734 Y39.330 E25.7122
G1 X173.012 Y39.080 E25.7808
G1 X170.393 Y38.606 E25.8856
G1 X167.144 Y37.896 E26.0165
G1 X161.712 Y37.896 E26.2305
G1 X158.862 Y38.427 E26.3447
G1 X156.229 Y38.819 E26.4495
G1 X154.500 Y39.015 E26.5180
G1 X152.780 Y39.147 E26.5859
G1 X151.062 Y39.205 E26.6537
G1 X150.227 Y39.203 E26.6865
G1 X149.392 Y39.179 E26.7194
G1 X147.676 Y39.068 E26.7871
G1 X145.961 Y38.882 E26.8551
G1 X144.239 Y38.632 E26.9236
G1 X141.620 Y38.158 E27.0284
G1 X140.420 Y37.896 E27.0768
G1 X130.534 Y37.896 E27.4662
G1 X130.088 Y37.979 E27.4840
G1 X127.456 Y38.371 E27.5888
G1 X125.726 Y38.567 E27.6574
G1 X124.006 Y38.699 E27.7253
G1 X122.288 Y38.758 E27.7930
G1 X121.453 Y38.755 E27.8259
G1 X120.617 Y38.732 E27.8588
G1 X118.902 Y38.620 E27.9265
G1 X117.187 Y38.434 E27.9945
G1 X115.465 Y38.184 E28.0630
G1 X113.871 Y37.896 E28.1268
G1 X102.614 Y37.896 E28.5701
G1 X102.642 Y37.843 E28.5725
G1 X103.008 Y37.369 E28.5960
G1 X103.270 Y37.129 E28.6100
G1 X103.854 Y36.755 E28.6374
G1 X104.178 Y36.618 E28.6512
G1 X105.894 Y36.221 E28.7206
G1 X105.587 Y35.896 E28.7382
G1 X111.406 Y35.896 E28.9673
G1 X111.813 Y35.627 E28.9866
G1 X111.906 Y35.558 E28.9911
G1 X112.325 Y35.208 E29.0126
G1 X133.785 Y35.561 E29.8579
G1 X133.814 Y35.896 E29.8712
G1 X137.996 Y35.896 E30.0359
G1 X138.027 Y35.630 E30.0464
G1 X154.177 Y35.896 E30.6825
G1 X203.215 Y35.896 E32.6138
G1 X203.247 Y35.818 E32.6171
G1 X203.475 Y35.668 E32.6278
G1 X204.210 Y33.896 E32.7034
G1 X103.925 Y33.896 E36.6529
G1 X103.734 Y33.526 E36.6693
G1 X103.687 Y33.421 E36.6738
G1 X103.512 Y32.965 E36.6931
G1 X103.477 Y32.855 E36.6976
G1 X103.354 Y32.383 E36.7168
G1 X103.331 Y32.270 E36.7214
G1 X103.277 Y31.896 E36.7363
G1 X205.040 Y31.896 E40.7440
G1 X205.870 Y29.896 E40.8292
G1 X103.004 Y29.896 E44.8804
G1 X102.984 Y29.769 E44.8854
G1 X102.971 Y29.590 E44.8925
G1 X102.998 Y27.896 E44.9592
G1 X206.699 Y27.896 E49.0433
G1 X206.930 Y27.339 E49.0670
G1 X207.007 Y27.006 E49.0805
G1 X207.047 Y26.344 E49.1066
G1 X207.049 Y26.298 E49.1084
G1 X207.056 Y25.896 E49.1243
G1 X103.030 Y25.896 E53.2211
G1 X103.058 Y24.117 E53.2912
G1 X103.089 Y23.896 E53.3000
G1 X114.729 Y23.896 E53.7584
G1 X114.702 Y23.889 E53.7595
G1 X112.975 Y23.393 E53.8303
G1 X108.386 Y21.917 E54.0201
G1 X108.258 Y21.896 E54.0252
G1 X104.991 Y21.896 E54.1539
G92 E0.0000
G1 E-0.9000 F2000
G1 X130.829 Y23.896 F7200
G1 E0.0000 F2000
G92 E0.0000
G1 X143.132 Y23.896 E0.4845 F188
G1 X145.125 Y24.320 E0.5648
G1 X146.822 Y24.607 E0.6326
G1 X148.511 Y24.821 E0.6996
G1 X150.199 Y24.949 E0.7663
G1 X151.073 Y24.977 E0.8007
G1 X151.890 Y24.977 E0.8329
G1 X153.584 Y24.906 E0.8996
G1 X155.281 Y24.751 E0.9668
G1 X156.991 Y24.524 E1.0347
G1 X159.722 Y24.054 E1.1438
G1 X160.488 Y23.896 E1.1746
G1 X169.334 Y23.896 E1.5230
G1 X171.319 Y24.434 E1.6040
G1 X173.925 Y25.034 E1.7093
G1 X175.628 Y25.350 E1.7776
G1 X177.320 Y25.584 E1.8448
G1 X179.009 Y25.723 E1.9116
G1 X179.823 Y25.750 E1.9436
G1 X180.637 Y25.749 E1.9757
G1 X182.330 Y25.666 E2.0424
G1 X184.028 Y25.487 E2.1097
G1 X185.741 Y25.226 E2.1779
G1 X188.365 Y24.711 E2.2832
G1 X191.811 Y23.896 E2.4227
